vendor/shopware/storefront/Resources/app/storefront/dist/assets/icon/default/log-out.svg

<svg xmlns="http://www.w3.org/2000/svg" width="24" height="24" viewBox="0 0 24 24">
  <path fill="#758CA3" fill-rule="evenodd" d="M20.5857864,13 L5,13 C4.44771525,13 4,12.5522847 4,12 C4,11.4477153 4.44771525,11 5,11 L20.5857864,11 L18.2928932,8.70710678 C17.9023689,8.31658249 17.9023689,7.68341751 18.2928932,7.29289322 C18.6834175,6.90236893 19.3165825,6.90236893 19.7071068,7.29289322 L23.7071068,11.2928932 C24.0976311,11.6834175 24.0976311,12.3165825 23.7071068,12.7071068 L19.7071068,16.7071068 C19.3165825,17.0976311 18.6834175,17.0976311 18.2928932,16.7071068 C17.9023689,16.3165825 17.9023689,15.6834175 18.2928932,15.2928932 L20.5857864,13 Z M14,7 C14,7.55228475 13.5522847,8 13,8 C12.4477153,8 12,7.55228475 12,7 L12,4.69425418 C12,4.20541502 11.646587,3.78822491 11.164399,3.70786025 L3.16439899,2.37452692 C2.61962867,2.28373187 2.10440113,2.65175153 2.01360608,3.19652186 C2.00455084,3.25085328 2,3.30583998 2,3.36092084 L2,20.6390792 C2,21.1913639 2.44771525,21.6390792 3,21.6390792 C3.05508086,21.6390792 3.11006756,21.6345283 3.16439899,21.6254731 L11.164399,20.2921397 C11.646587,20.2117751 12,19.794585 12,19.3057458 L12,17 C12,16.4477153 12.4477153,16 13,16 C13.5522847,16 14,16.4477153 14,17 L14,19.3057458 C14,20.7722633 12.9397609,22.0238336 11.493197,22.2649276 L3.49319696,23.5982609 C3.33020268,23.6254266 3.16524258,23.6390792 3,23.6390792 C1.34314575,23.6390792 3.55271368e-15,22.2959334 0,20.6390792 L0,3.36092084 C0,3.19567826 0.0136525156,3.03071816 0.0408182285,2.86772388 C0.313203389,1.23341292 1.858886,0.129353911 3.49319696,0.401739072 L11.493197,1.73507241 C12.9397609,1.97616639 14,3.22773672 14,4.69425418 L14,7 Z"/>
</svg>

<svg xmlns="http://www.w3.org/2000/svg" width="24" height="24" viewBox="0 0 24 24"><path fill="#758CA3" fill-rule="evenodd" d="M20.5858 13H5c-.5523 0-1-.4477-1-1s.4477-1 1-1h15.5858l-2.293-2.2929c-.3904-.3905-.3904-1.0237 0-1.4142.3906-.3905 1.0238-.3905 1.4143 0l4 4c.3905.3905.3905 1.0237 0 1.4142l-4 4c-.3905.3905-1.0237.3905-1.4142 0-.3905-.3905-.3905-1.0237 0-1.4142L20.5858 13zM14 7c0 .5523-.4477 1-1 1s-1-.4477-1-1V4.6943a1 1 0 0 0-.8356-.9864l-8-1.3334c-.5448-.0908-1.06.2773-1.1508.822A1 1 0 0 0 2 3.361v17.2782c0 .5523.4477 1 1 1a1 1 0 0 0 .1644-.0136l8-1.3334A1 1 0 0 0 12 19.3057V17c0-.5523.4477-1 1-1s1 .4477 1 1v2.3057c0 1.4666-1.0602 2.7181-2.5068 2.9592l-8 1.3334A3 3 0 0 1 3 23.639c-1.6569 0-3-1.3432-3-3V3.3609a3 3 0 0 1 .0408-.4932C.3132 1.2334 1.8588.1294 3.4932.4017l8 1.3334C12.9398 1.976 14 3.2277 14 4.6943V7z"/></svg>
